icons/bag-percent.svg

<svg xmlns="http://www.w3.org/2000/svg" width="24" height="24" viewBox="0 0 24 24">
  <path d="M14,2 C15.5976809,2 16.9036609,3.24891996 16.9949073,4.82372721 L17,5 L17,6 L20,6 C21.1045695,6 22,6.8954305 22,8 L22,20 C22,21.1045695 21.1045695,22 20,22 L4,22 C2.8954305,22 2,21.1045695 2,20 L2,8 C2,6.8954305 2.8954305,6 4,6 L7,6 L7,5 C7,3.40231912 8.24891996,2.09633912 9.82372721,2.00509269 L10,2 L14,2 Z M15.7071068,16.2928932 C15.3165825,15.9023689 14.6834175,15.9023689 14.2928932,16.2928932 C13.9023689,16.6834175 13.9023689,17.3165825 14.2928932,17.7071068 C14.6834175,18.0976311 15.3165825,18.0976311 15.7071068,17.7071068 C16.0976311,17.3165825 16.0976311,16.6834175 15.7071068,16.2928932 Z M15.7071068,10.2928932 C15.3165825,9.90236893 14.6834175,9.90236893 14.2928932,10.2928932 L14.2928932,10.2928932 L8.29289322,16.2928932 L8.20970461,16.3871006 C7.90467972,16.7793918 7.93240926,17.3466228 8.29289322,17.7071068 C8.68341751,18.0976311 9.31658249,18.0976311 9.70710678,17.7071068 L9.70710678,17.7071068 L15.7071068,11.7071068 L15.7902954,11.6128994 C16.0953203,11.2206082 16.0675907,10.6533772 15.7071068,10.2928932 Z M9.70710678,10.2928932 C9.31658249,9.90236893 8.68341751,9.90236893 8.29289322,10.2928932 C7.90236893,10.6834175 7.90236893,11.3165825 8.29289322,11.7071068 C8.68341751,12.0976311 9.31658249,12.0976311 9.70710678,11.7071068 C10.0976311,11.3165825 10.0976311,10.6834175 9.70710678,10.2928932 Z M14,4 L10,4 C9.48716416,4 9.06449284,4.38604019 9.00672773,4.88337887 L9,5 L9,6 L15,6 L15,5 C15,4.48716416 14.6139598,4.06449284 14.1166211,4.00672773 L14,4 Z"/>
</svg>

<svg xmlns="http://www.w3.org/2000/svg" viewBox="0 0 24 24">
  <path d="M14 2a3 3 0 0 1 3 2.82V6h3a2 2 0 0 1 2 2v12a2 2 0 0 1-2 2H4a2 2 0 0 1-2-2V8c0-1.1.9-2 2-2h3V5a3 3 0 0 1 2.82-3H14zm1.7 14.3a1 1 0 1 0-1.4 1.4 1 1 0 0 0 1.4-1.4zm0-6a1 1 0 0 0-1.4 0l-6 6-.09.09a1 1 0 0 0 1.5 1.32l6-6 .08-.1a1 1 0 0 0-.08-1.32zm-6 0a1 1 0 1 0-1.4 1.4 1 1 0 0 0 1.4-1.4zM14 4h-4a1 1 0 0 0-1 .88V6h6V5a1 1 0 0 0-.88-1H14z"/>
</svg>
